assets/svg/scala.svg

<?xml version="1.0" encoding="UTF-8"?>
<svg width="26px" height="42px" viewBox="0 0 26 42" version="1.1" xmlns="http://www.w3.org/2000/svg" xmlns:xlink="http://www.w3.org/1999/xlink">
    <title>scala</title>
    <defs>
        <linearGradient x1="0%" y1="50%" x2="100%" y2="50%" id="linearGradient-1">
            <stop stop-color="#431313" offset="0%"></stop>
            <stop stop-color="#430C0C" offset="100%"></stop>
        </linearGradient>
        <linearGradient x1="0%" y1="50%" x2="100%" y2="50%" id="linearGradient-2">
            <stop stop-color="#B32424" offset="0%"></stop>
            <stop stop-color="#D12F2F" offset="100%"></stop>
        </linearGradient>
    </defs>
    <g id="Garage" stroke="none" stroke-width="1" fill="none" fill-rule="evenodd">
        <g id="Yard-/-Pricing-Copy-2" transform="translate(-665.000000, -3769.000000)" fill-rule="nonzero">
            <g id="Features" transform="translate(465.000000, 1330.000000)">
                <g id="Langs" transform="translate(150.000000, 2133.000000)">
                    <g id="Group-5" transform="translate(0.000000, 179.000000)">
                        <g id="scala" transform="translate(50.000000, 127.000000)">
                            <path d="M0,29.0322581 L0,25.8064516 C0,25.262724 11.7315412,24.3519714 19.3749104,22.5806452 L19.3749104,22.5806452 C23.0673835,23.4365592 25.8064516,24.4928316 25.8064516,25.8064516 L25.8064516,25.8064516 L25.8064516,29.0322581 C25.8064516,30.3451613 23.0673835,31.4021505 19.3749104,32.2580645 L19.3749104,32.2580645 C11.7315412,30.4863799 0,29.5756272 0,29.0322581" id="Path" fill="url(#linearGradient-1)" transform="translate(12.903226, 27.419355) scale(-1, 1) rotate(-180.000000) translate(-12.903226, -27.419355) "></path>
                            <path d="M0,16.1290323 L0,12.9032258 C0,12.3594982 11.7315412,11.4487456 19.3749104,9.67741935 L19.3749104,9.67741935 C23.0673835,10.5333334 25.8064516,11.5896057 25.8064516,12.9032258 L25.8064516,12.9032258 L25.8064516,16.1290323 C25.8064516,17.4419355 23.0673835,18.4989247 19.3749104,19.3548387 L19.3749104,19.3548387 C11.7315412,17.5831541 0,16.6724014 0,16.1290323" id="Path" fill="url(#linearGradient-1)" transform="translate(12.903226, 14.516129) scale(-1, 1) rotate(-180.000000) translate(-12.903226, -14.516129) "></path>
                            <path d="M0,22.5806452 L0,12.9032258 C0,13.7096774 25.8064516,15.3225806 25.8064516,19.3548387 L25.8064516,19.3548387 L25.8064516,29.0322581 C25.8064516,25 0,23.3870968 0,22.5806452" id="Path" fill="url(#linearGradient-2)" transform="translate(12.903226, 20.967742) scale(-1, 1) rotate(-180.000000) translate(-12.903226, -20.967742) "></path>
                            <path d="M0,9.67741935 L0,0 C0,0.806451613 25.8064516,2.41935484 25.8064516,6.4516129 L25.8064516,6.4516129 L25.8064516,16.1290323 C25.8064516,12.0967742 0,10.483871 0,9.67741935" id="Path" fill="url(#linearGradient-2)" transform="translate(12.903226, 8.064516) scale(-1, 1) rotate(-180.000000) translate(-12.903226, -8.064516) "></path>
                            <path d="M0,35.483871 L0,25.8064516 C0,26.6129032 25.8064516,28.2258065 25.8064516,32.2580645 L25.8064516,32.2580645 L25.8064516,41.9354839 C25.8064516,37.9032258 0,36.2903226 0,35.483871" id="Path" fill="url(#linearGradient-2)" transform="translate(12.903226, 33.870968) scale(-1, 1) rotate(-180.000000) translate(-12.903226, -33.870968) "></path>
                        </g>
                    </g>
                </g>
            </g>
        </g>
    </g>
</svg>

<svg width="26" height="42" xmlns="http://www.w3.org/2000/svg"><defs><linearGradient x1="0%" y1="50%" x2="100%" y2="50%" id="a"><stop stop-color="#431313" offset="0%"/><stop stop-color="#430C0C" offset="100%"/></linearGradient><linearGradient x1="0%" y1="50%" x2="100%" y2="50%" id="b"><stop stop-color="#B32424" offset="0%"/><stop stop-color="#D12F2F" offset="100%"/></linearGradient></defs><g fill-rule="nonzero" fill="none"><path d="M0 29.032v-3.226c0-.543 11.732-1.454 19.375-3.225 3.692.856 6.431 1.912 6.431 3.225v3.226c0 1.313-2.739 2.37-6.431 3.226C11.732 30.486 0 29.576 0 29.032" fill="url(#a)" transform="matrix(1 0 0 -1 0 54.839)"/><path d="M0 16.129v-3.226c0-.544 11.732-1.454 19.375-3.226 3.692.856 6.431 1.913 6.431 3.226v3.226c0 1.313-2.739 2.37-6.431 3.226C11.732 17.583 0 16.672 0 16.129" fill="url(#a)" transform="matrix(1 0 0 -1 0 29.032)"/><path d="M0 22.58v-9.677c0 .807 25.806 2.42 25.806 6.452v9.677C25.806 25 0 23.387 0 22.581" fill="url(#b)" transform="matrix(1 0 0 -1 0 41.935)"/><path d="M0 9.677V0c0 .806 25.806 2.42 25.806 6.452v9.677C25.806 12.097 0 10.484 0 9.677" fill="url(#b)" transform="matrix(1 0 0 -1 0 16.129)"/><path d="M0 35.484v-9.678c0 .807 25.806 2.42 25.806 6.452v9.677C25.806 37.903 0 36.29 0 35.484" fill="url(#b)" transform="matrix(1 0 0 -1 0 67.742)"/></g></svg>
